X:1
T:Title
%%score { ( 1 3 ) | 2 }
L:1/8
M:6/8
K:Ab
V:1 treble nm="Grand Piano"
V:3 treble 
V:2 treble 
V:1
 z3 z2[Q:1/4=90] E | E2 c _c2 =c | d3 c3 | cBA [CF]2 [CA] |[M:5/8] G-G- G3 |[M:1/8] E | %6
[M:3/4] E2 B =A2 B | [Gd]3 [GB]2 [GB] | B2 F [=DB]2 [Dc] | [DB]6 | C2 z e3 | B3 e3 | %12
 [Ec][DB] [CA][=DA] [B,DG][B,FA] | B6 | EF GA GA |[M:7/8] c_c=c e3 [Fd] |[M:3/4] c2 E [Gc]2 [GB] | %17
[M:5/8] [CA]- [CA]3 z |] %18
V:2
 z3 z2 [A,C] | [A,C]2 [A,EA] [A,=DA]2 [A,EA] | [A,FA]3 [A,EA]3 | [A,E][A,D][A,C] [A,,A,]2 [A,,A,] | %4
[M:5/8] [E,B,D]-[E,B,D]- [E,B,D]3 |[M:1/8] [E,G,] |[M:3/4] [E,G,D]2 [E,G,D] [E,_G,D]2 [E,=G,D] | %7
 [E,B,]3 [E,D]2 [D,D] | [F,=DF]2 [F,D] [B,,B,]2 [B,,A,] | [E,G,]6 | %10
 [A,,A,]2 [C,A,] [E,G,E]2 [E,B,] | [E,G,E]2 [D,G,] [C,A,]2 [B,,G,] | %12
 [A,,A,][A,,A,] [A,,A,][B,,F,] A,,=D, | [E,G,E]2 [F,A,] .[E,G,]3 | %14
 [E,G,][E,A,=D] [E,B,_D][A,C] [A,C][A,C] |[M:7/8] [A,E][A,=D][A,E] [F,=A,E]3 [D,B,] | %16
[M:3/4] [E,A,E]2 [E,C] [E,E]2 [E,D] |[M:5/8] [A,,A,]- [A,,A,]3 z |] %18
V:3
 x6 | x6 | x6 | x6 |[M:5/8] x5 |[M:1/8] x |[M:3/4] x6 | x6 | x6 | x6 | A2- [EA]2 z G | z2 E E2 E | %12
 x6 | z2 =D ._D3 | x6 |[M:7/8] x7 |[M:3/4] x6 |[M:5/8] x5 |] %18

